!!!SOCIAL_FUNCTION: songs with games
!!!SOCIAL_FUNCTION2: bullet game
!!!PDT:	1943
!!!LING_GROUP: Muskogean
!!!LANG: Non-Tone
Specific Region: Oklahoma, California, Mississippi, Louisiana, Texas, Alabama
!!!REG: Southeast
!!!COM: Anon.
!!!OTL: Bullet Game Song (a)
!!!ODT: <1933//
!!!MPN: Lapintabeseihoke [Kills it Himself, Sidney Wesley]
!!!MLC: Philadelphia, Mississippi, United States of America
!! Song was recorded in January 1933.
!!!AGN: monody
!!!AMT: simple duple
!!!RWG: Transcribed pitches, durations, and meters are only approximate.
**kern
*ICvox
*Imale
*clefF4
*k[f#c#g#]
*M2/4
*MM144
=1-
4A
8B
8A
=2
2A
=3
4A
8F#
8E
=4
4E
4r
=5
4A
8B
8A
=6
2A
=7
4A
8F#
8E
=8
4E
4r
=9
4c#
4A
=10
2B
=11
4B
8A
8F#
=12
4E
4r
=13
4A
8B
8A
=14
2A
=15
4A
8F#
8E
=16
4E
4r
=17
4B
8A
8A
=18
2B
=19
8B
8A
4A
=20
4A
4r
=21
4A
8F#
8E
=22
4E
4r
=23
4A
8B
8A
=24
2B
=25
4B
8A
8F#
=26
4E
4r
=27
4B
4A
=28
2A
=29
4A
8F#
8E
=30
4E
4r
=31
4A
8B
8A
=32
2B
=33
4B
8A
8F#
=34
4E
4r
=35
4B
4A
=36
2A
=37
4A
8F#
8E
=38
4E
4r
=39
8B
8B
8A
8A
=40
2B
=41
8B
8A
4A
=42
2A
=43
4A
8F#
8E
=44
4E
4E
=45
4A
4A
=46
2B
=47
4B
4A
=48
2A
=49
4B
8B
8A
=50
2A
=51
4A
8F#
8E
=52
4E
4r
==
*-
!!!CNT: Choctaw
!!!TXO: Choctaw
!!!OCY: United States
!!!OCL: Frances Densmore
!!!YOR: Frances Densmore, "Choctaw Music"
!!!YOR: Bulletin 136, page 133, No. 7
!!!PPR: Smithsonian Institution, Bureau of American Ethnology
!!!PPR: Government Printing Office
!!!PDT: 1943
!!!PPP: Washington, DC, United States of America
!!!YEC: Electronic Copyright 2000 David Huron
!!!YER: August 2000
!!!YEN: United States of America
!!!ENC: David Huron
!!!RDT: August 27, 2000
!!!EEV: Release 1.0
!!!AIN: vox
